<?xml version="1.0" encoding="UTF-8"?>
<map version="1.10" tiledversion="1.12.0" orientation="orthogonal" renderorder="right-down" compressionlevel="0" width="23" height="22" tilewidth="16" tileheight="16" infinite="0" nextlayerid="12" nextobjectid="3">
 <properties>
  <property name="AmbientLight" value="110 110 110"/>
  <property name="AutoFeed" value="T"/>
  <property name="EnableGrassSpread" value="T"/>
  <property name="ProduceArea" value="1 4 20 14"/>
  <property name="SpawnGrassFromPathsOnNewYear" value="T"/>
  <property name="TreatAsOutdoors" value="T"/>
  <property name="Warp" value="3 21 Farm 21 11"/>
 </properties>
 <tileset firstgid="1" name="Coop" tilewidth="16" tileheight="16" tilecount="84" columns="4">
  <image source="coopTiles" width="64" height="336"/>
  <tile id="12">
   <properties>
    <property name="Type" value="Wood"/>
   </properties>
  </tile>
  <tile id="33">
   <properties>
    <property name="Passable" type="int" value="0"/>
    <property name="Trough" value="T"/>
   </properties>
  </tile>
  <tile id="53">
   <properties>
    <property name="Type" value="Wood"/>
   </properties>
  </tile>
  <tile id="54">
   <properties>
    <property name="Type" value="Wood"/>
   </properties>
  </tile>
 </tileset>
 <tileset firstgid="85" name="p" tilewidth="16" tileheight="16" tilecount="64" columns="4">
  <image source="paths" width="64" height="256"/>
 </tileset>
 <tileset firstgid="149" name="indoors" tilewidth="16" tileheight="16" tilecount="2176" columns="32">
  <image source="townInterior" width="512" height="1088"/>
  <tile id="2075">
   <properties>
    <property name="Diggable" value="T"/>
   </properties>
  </tile>
  <tile id="2076">
   <properties>
    <property name="Diggable" value="T"/>
   </properties>
  </tile>
  <tile id="2107">
   <properties>
    <property name="Diggable" value="T"/>
   </properties>
  </tile>
  <tile id="2108">
   <properties>
    <property name="Diggable" value="T"/>
   </properties>
  </tile>
 </tileset>
 <layer id="1" name="Back" width="23" height="22">
  <data encoding="csv">
21,13,13,13,13,13,13,13,13,13,13,13,0,0,0,0,0,0,0,0,0,0,17,
17,13,17,13,13,13,13,13,13,13,13,13,13,13,13,0,0,0,0,0,0,0,17,
21,13,13,13,13,13,13,13,13,13,13,13,13,13,13,0,0,0,0,0,0,0,21,
13,13,13,13,13,13,34,34,34,34,34,34,34,34,34,34,34,34,54,66,54,66,13,
13,2036,2036,2036,2036,2036,2036,2036,2036,2036,2036,2036,2036,2036,2036,2036,2036,2036,2036,2036,2036,2036,13,
13,2258,2227,2034,2034,2034,2034,2034,2034,2034,2034,2034,2034,2034,2034,2034,2034,2034,2034,2034,2227,2258,13,
13,2258,2255,2224,2224,2224,2224,2224,2224,2224,2224,2224,2224,2224,2224,2224,2224,2224,2224,2225,2255,2258,13,
13,2258,2255,2256,2256,2256,2256,2256,2256,2256,2256,2256,2256,2256,2256,2256,2256,2256,2256,2257,2255,2258,15,
13,2258,2255,2256,2256,2256,2256,2256,2256,2256,2256,2256,2256,2256,2256,2256,2256,2256,2256,2257,2255,2258,19,
13,2258,2255,2256,2256,2256,2256,2256,2256,2256,2256,2256,2256,2256,2256,2256,2256,2256,2256,2257,2255,2258,13,
0,2258,2255,2256,2256,2256,2256,2256,2256,2256,2256,2256,2256,2256,2256,2256,2256,2256,2256,2257,2255,2258,0,
0,2258,2255,2256,2256,2256,2256,2256,2256,2256,2256,2256,2256,2256,2256,2256,2256,2256,2256,2257,2255,2258,0,
0,2258,2255,2256,2256,2256,2256,2256,2256,2256,2256,2256,2256,2256,2256,2256,2256,2256,2256,2257,2255,2258,0,
0,2258,2255,2256,2256,2256,2256,2256,2256,2256,2256,2256,2256,2256,2256,2256,2256,2256,2256,2257,2255,2258,0,
0,2258,2255,2256,2256,2256,2256,2256,2256,2256,2256,2256,2256,2256,2256,2256,2256,2256,2256,2257,2255,2258,0,
0,2258,2255,2256,2256,2256,2256,2256,2256,2256,2256,2256,2256,2256,2256,2256,2256,2256,2256,2257,2255,2258,0,
0,2258,2255,2256,2256,2256,2256,2256,2256,2256,2256,2256,2256,2256,2256,2256,2256,2256,2256,2257,2255,2258,0,
0,2258,2227,2228,2228,2228,2228,2228,2228,2228,2228,2228,2228,2228,2228,2228,2228,2228,2228,2228,2227,2258,0,
0,2258,2036,2036,2036,2036,2036,2036,2036,2036,2036,2036,2036,2036,2036,2036,2036,2036,2036,2036,2036,2258,0,
0,2258,2258,2258,2258,2258,2258,2258,2258,2258,2258,2258,2258,2258,2258,2258,2258,2258,2258,2258,2258,2258,0,
0,0,0,2258,0,0,0,0,2258,2258,2258,2258,2258,2258,2258,2258,2258,2258,0,0,0,0,0,
0,0,0,0,0,0,0,0,0,0,0,0,0,0,0,0,0,0,0,0,0,0,0
</data>
 </layer>
 <layer id="2" name="Buildings" width="23" height="22">
  <data encoding="csv">
1,2,2,2,2,2,2,2,2,2,2,2,2,2,2,2,2,2,2,2,2,2,3,
5,17,0,17,25,62,17,25,17,17,25,62,17,17,25,17,17,17,17,17,25,17,7,
5,21,21,21,48,29,50,51,51,51,51,51,51,51,51,51,51,52,31,21,48,21,7,
5,73,2131,2132,0,33,0,0,0,0,0,0,0,0,0,0,0,0,35,73,2067,73,7,
5,0,0,0,0,0,0,0,0,0,0,0,0,0,0,0,0,0,0,0,0,0,7,
5,0,0,0,0,0,0,0,0,0,0,0,0,0,0,0,0,0,0,0,0,0,7,
5,0,0,0,0,0,0,0,0,0,0,0,0,0,0,0,0,0,0,0,0,0,7,
5,0,0,0,0,0,0,0,0,0,0,0,0,0,0,0,0,0,0,0,0,0,7,
5,0,0,0,0,0,0,0,0,0,0,0,0,0,0,0,0,0,0,0,0,0,7,
5,0,0,0,0,0,0,0,0,0,0,0,0,0,0,0,0,0,0,0,0,0,7,
5,0,0,0,0,0,0,0,0,0,0,0,0,0,0,0,0,0,0,0,0,0,7,
5,0,0,0,0,0,0,0,0,0,0,0,0,0,0,0,0,0,0,0,0,0,7,
5,0,0,0,0,0,0,0,0,0,0,0,0,0,0,0,0,0,0,0,0,0,7,
5,0,0,0,0,0,0,0,0,0,0,0,0,0,0,0,0,0,0,0,0,0,7,
5,0,0,0,0,0,0,0,0,0,0,0,0,0,0,0,0,0,0,0,0,0,7,
5,0,0,0,0,0,0,0,0,0,0,0,0,0,0,0,0,0,0,0,0,0,7,
5,0,0,0,0,0,0,0,0,0,0,0,0,0,0,0,0,0,0,0,0,0,7,
5,0,0,0,0,0,0,0,0,0,0,0,0,0,0,0,0,0,0,0,0,0,7,
5,874,0,0,0,0,0,0,0,0,0,0,0,0,0,0,0,0,0,0,0,63,7,
9,874,0,0,0,0,0,0,0,0,0,0,0,0,0,0,0,0,0,0,0,1516,11,
149,149,9,0,11,149,149,9,0,0,0,0,0,0,0,0,1508,1509,11,149,149,149,149,
149,149,149,0,149,149,149,149,149,149,149,149,149,149,149,149,149,149,149,149,149,149,149
</data>
 </layer>
 <layer id="11" name="Buildings2" width="23" height="22">
  <data encoding="csv">
0,0,0,0,0,0,0,0,0,0,0,0,0,0,0,0,0,0,0,0,0,0,0,
0,0,0,0,0,0,0,0,1934,1936,0,1934,1935,1936,0,77,78,79,80,0,0,0,0,
0,0,0,0,0,0,0,0,1966,1968,0,1966,1967,1968,0,0,0,0,0,0,0,0,0,
0,0,0,0,0,0,0,0,0,0,0,0,0,0,0,0,0,0,0,0,0,0,0,
0,0,0,0,0,0,0,0,0,0,0,0,0,0,0,0,0,0,0,0,0,0,0,
0,0,0,0,0,0,0,0,0,0,0,0,0,0,0,0,0,0,0,0,0,0,0,
0,0,0,0,0,0,0,0,0,0,0,0,0,0,0,0,0,0,0,0,0,0,0,
0,0,0,0,0,0,0,0,0,0,0,0,0,0,0,0,0,0,0,0,0,0,0,
0,0,0,0,0,0,0,0,0,0,0,0,0,0,0,0,0,0,0,0,0,0,0,
0,0,0,0,0,0,0,0,0,0,0,0,0,0,0,0,0,0,0,0,0,0,0,
0,0,0,0,0,0,0,0,0,0,0,0,0,0,0,0,0,0,0,0,0,0,0,
0,0,0,0,0,0,0,0,0,0,0,0,0,0,0,0,0,0,0,0,0,0,0,
0,0,0,0,0,0,0,0,0,0,0,0,0,0,0,0,0,0,0,0,0,0,0,
0,0,0,0,0,0,0,0,0,0,0,0,0,0,0,0,0,0,0,0,0,0,0,
0,0,0,0,0,0,0,0,0,0,0,0,0,0,0,0,0,0,0,0,0,0,0,
0,0,0,0,0,0,0,0,0,0,0,0,0,0,0,0,0,0,0,0,0,0,0,
0,0,0,0,0,0,0,0,0,0,0,0,0,0,0,0,0,0,0,0,0,0,0,
0,0,0,0,0,0,0,0,0,0,0,0,0,0,0,0,0,0,0,0,0,0,0,
0,0,0,0,0,0,0,0,0,0,0,0,0,0,0,0,0,0,0,0,0,0,0,
0,0,0,0,0,0,0,0,0,0,0,0,0,0,0,0,0,0,0,0,0,0,0,
0,0,0,0,0,0,0,0,0,0,0,0,0,0,0,0,0,0,0,0,0,0,0,
0,0,0,0,0,0,0,0,0,0,0,0,0,0,0,0,0,0,0,0,0,0,0
</data>
 </layer>
 <layer id="3" name="Front" width="23" height="22">
  <data encoding="csv">
1,2,2,2,2,2,2,2,2,2,2,2,2,2,2,2,2,2,2,2,2,2,3,
5,65,0,0,0,0,0,0,0,0,0,0,0,0,0,0,0,0,0,65,0,65,7,
5,69,2099,2100,0,0,0,0,0,0,0,0,0,0,0,0,0,0,0,69,2035,69,7,
5,0,0,0,0,0,0,0,0,0,0,0,0,0,0,0,0,0,0,0,0,0,7,
5,0,0,0,0,0,0,0,0,0,0,0,0,0,0,0,0,0,0,0,0,0,7,
5,0,0,0,0,0,0,0,0,0,0,0,0,0,0,0,0,0,0,0,0,0,7,
5,0,0,0,0,0,0,0,0,0,0,0,0,0,0,0,0,0,0,0,0,0,7,
5,0,0,0,0,0,0,0,0,0,0,0,0,0,0,0,0,0,0,0,0,0,7,
0,0,0,0,0,0,0,0,0,0,0,0,0,0,0,0,0,0,0,0,0,0,0,
0,0,0,0,0,0,0,0,0,0,0,0,0,0,0,0,0,0,0,0,0,0,0,
0,0,0,0,0,0,0,0,0,0,0,0,0,0,0,0,0,0,0,0,0,0,0,
0,0,0,0,0,0,0,0,0,0,0,0,0,0,0,0,0,0,0,0,0,0,0,
0,0,0,0,0,0,0,0,0,0,0,0,0,0,0,0,0,0,0,0,0,0,0,
0,0,0,0,0,0,0,0,0,0,0,0,0,0,0,0,0,0,0,0,0,0,0,
0,0,0,0,0,0,0,0,0,0,0,0,0,0,0,0,0,0,0,0,0,0,0,
0,0,0,0,0,0,0,0,0,0,0,0,0,0,0,0,0,0,0,0,0,0,0,
0,0,0,0,0,0,0,0,0,0,0,0,0,0,0,0,0,0,0,0,0,0,0,
0,842,0,0,0,0,0,0,0,0,0,0,0,0,0,0,0,0,0,0,0,59,0,
0,842,0,0,0,0,0,0,0,0,0,0,0,0,0,0,0,0,0,0,0,1484,0,
0,10,4,0,8,10,10,4,0,0,0,0,0,0,0,0,1476,1477,8,10,10,10,0,
0,0,0,10,0,0,0,0,10,10,10,10,10,10,10,10,10,10,0,0,0,0,0,
0,0,0,0,0,0,0,0,0,0,0,0,0,0,0,0,0,0,0,0,0,0,0
</data>
 </layer>
 <layer id="9" name="AlwaysFront" width="23" height="22">
  <data encoding="csv">
0,0,0,0,0,0,0,0,0,0,0,0,0,0,0,0,0,0,0,0,0,0,0,
0,0,0,0,0,0,0,0,0,0,0,0,0,0,0,0,0,0,0,0,0,0,0,
0,0,0,0,0,0,0,0,0,0,0,0,0,0,0,0,0,0,0,0,0,0,0,
0,0,0,0,0,0,0,0,0,0,0,0,0,0,0,0,0,0,0,0,0,0,0,
0,0,0,0,0,0,0,0,0,0,0,0,0,0,0,0,0,0,0,0,0,0,0,
0,0,0,0,0,0,0,0,0,0,0,0,0,0,0,0,0,0,0,0,0,0,0,
0,0,0,0,0,0,0,0,0,0,0,0,0,0,0,0,0,0,0,0,0,0,0,
0,0,0,0,0,0,0,0,0,0,0,0,0,0,0,0,0,0,0,0,0,0,0,
0,0,0,0,0,0,0,0,0,0,0,0,0,0,0,0,0,0,0,0,0,0,0,
0,0,0,0,0,0,0,0,0,0,0,0,0,0,0,0,0,0,0,0,0,0,0,
0,0,0,0,0,0,0,0,0,0,0,0,0,0,0,0,0,0,0,0,0,0,0,
0,0,0,0,0,0,0,0,0,0,0,0,0,0,0,0,0,0,0,0,0,0,0,
0,0,0,0,0,0,0,0,0,0,0,0,0,0,0,0,0,0,0,0,0,0,0,
0,0,0,0,0,0,0,0,0,0,0,0,0,0,0,0,0,0,0,0,0,0,0,
0,0,0,0,0,0,0,0,0,0,0,0,0,0,0,0,0,0,0,0,0,0,0,
0,0,0,0,0,0,0,0,0,0,0,0,0,0,0,0,0,0,0,0,0,0,0,
0,0,0,0,0,0,0,0,0,0,0,0,0,0,0,0,0,0,0,0,0,0,0,
0,0,0,0,0,0,0,0,0,0,0,0,0,0,0,0,0,0,0,0,0,0,0,
0,0,0,0,0,0,0,0,0,0,0,0,0,0,0,0,0,0,0,0,0,0,0,
0,0,0,0,0,0,0,0,0,0,0,0,0,0,0,0,0,0,0,0,0,0,0,
0,0,0,0,0,0,0,0,0,0,0,0,0,0,0,0,0,0,0,0,0,0,0,
0,0,0,149,0,0,0,0,0,0,0,0,0,0,0,0,0,0,0,0,0,0,0
</data>
 </layer>
 <layer id="4" name="Paths" width="23" height="22">
  <data encoding="csv">
0,0,0,0,0,0,0,0,0,0,0,0,0,0,0,0,0,0,0,0,0,0,0,
0,0,0,0,0,0,0,0,0,0,0,0,0,0,0,0,0,0,0,0,0,0,0,
0,0,0,0,0,0,0,0,0,0,0,0,0,0,0,0,0,0,0,0,0,0,0,
0,0,0,0,0,0,0,0,0,0,0,0,0,0,0,0,0,0,0,0,0,0,0,
0,0,0,0,0,0,0,0,0,0,0,0,0,0,0,0,0,0,0,0,0,0,0,
0,0,0,0,0,0,0,0,0,0,0,0,0,0,0,0,0,0,0,0,0,0,0,
0,0,0,107,107,107,107,107,107,107,107,107,107,107,107,107,107,107,107,93,0,0,0,
0,0,0,107,107,107,107,107,107,107,107,93,107,107,107,107,107,107,107,107,0,0,0,
0,0,0,107,107,93,107,107,107,107,107,107,107,107,107,107,107,107,107,107,0,0,0,
0,0,0,107,107,107,107,107,107,107,107,107,107,107,93,107,107,107,107,107,0,0,0,
0,0,0,107,107,107,107,107,107,107,107,107,107,107,107,107,107,107,107,107,0,0,0,
0,0,0,107,107,107,107,107,93,107,107,107,107,107,107,107,107,93,107,107,0,0,0,
0,0,0,107,107,107,107,107,107,107,107,107,107,107,107,107,107,107,107,107,0,0,0,
0,0,0,107,107,107,107,107,107,107,107,107,107,93,107,107,107,107,107,107,0,0,0,
0,0,0,107,93,107,107,107,107,107,107,107,107,107,107,107,107,107,107,107,0,0,0,
0,0,0,107,107,107,107,107,107,107,107,107,107,107,107,107,107,107,107,93,0,0,0,
0,0,0,107,107,107,107,107,107,107,93,107,107,107,107,107,107,107,107,107,0,0,0,
0,0,0,0,0,0,0,0,0,0,0,0,0,0,0,0,0,0,0,0,0,0,0,
0,0,0,0,0,0,0,0,0,0,0,0,0,0,0,0,0,0,0,0,0,0,0,
0,0,0,0,0,0,0,0,0,0,0,0,0,0,0,0,0,0,0,0,0,0,0,
0,0,0,0,0,0,0,0,0,0,0,0,0,0,0,0,0,0,0,0,0,0,0,
0,0,0,0,0,0,0,0,0,0,0,0,0,0,0,0,0,0,0,0,0,0,0
</data>
 </layer>
 <objectgroup id="5" name="Back">
  <object id="1" name="TileData" x="48" y="304" width="16" height="16">
   <properties>
    <property name="NPCBarrier" value="T"/>
   </properties>
  </object>
  <object id="2" name="TileData" x="48" y="320" width="16" height="16">
   <properties>
    <property name="NPCBarrier" value="T"/>
   </properties>
  </object>
 </objectgroup>
 <objectgroup id="6" name="Buildings"/>
 <objectgroup id="7" name="Front"/>
 <objectgroup id="8" name="Paths"/>
</map>
