<?xml version="1.0" encoding="UTF-8"?>
<map version="1.10" tiledversion="1.12.0" orientation="orthogonal" renderorder="right-down" compressionlevel="0" width="21" height="25" tilewidth="16" tileheight="16" infinite="0" nextlayerid="13" nextobjectid="305">
 <properties>
  <property name="AmbientLight" value="200 200 90"/>
  <property name="CanCaskHere" value="T"/>
  <property name="FloorIDs" value="Main 27"/>
  <property name="ParrotPerches" value="2 2 0 6 0 12 12 16 17 16 19 15 19 3 20 10 12 1 6 1 9 20 2 20 6 21 2 17"/>
  <property name="WallIDs" value="Main 12"/>
  <property name="Warp" value="4 1 IslandFarmHouse 5 16 5 1 IslandFarmHouse 6 16"/>
 </properties>
 <tileset firstgid="1" name="paths" tilewidth="16" tileheight="16" tilecount="64" columns="4">
  <image source="paths" width="64" height="256"/>
 </tileset>
 <tileset firstgid="65" name="untitled tile sheet" tilewidth="16" tileheight="16" tilecount="2176" columns="32">
  <image source="townInterior" width="512" height="1088"/>
 </tileset>
 <tileset firstgid="2241" name="mine_frost_dangerous" tilewidth="16" tileheight="16" tilecount="288" columns="16">
  <image source="Mines/mine_frost_dangerous" width="256" height="288"/>
 </tileset>
 <tileset firstgid="2529" name="walls_and_floors" tilewidth="16" tileheight="16" tilecount="688" columns="16">
  <image source="walls_and_floors" width="256" height="688"/>
 </tileset>
 <layer id="1" name="Back" width="21" height="25">
  <data encoding="csv">
0,0,0,0,0,0,0,0,0,0,0,0,0,0,0,0,0,0,0,0,0,
0,0,0,1108,1108,1108,0,0,0,0,0,0,0,0,0,0,0,0,0,0,0,
0,0,0,1108,1108,1108,1108,0,0,2541,2541,2541,2541,2541,2541,2541,0,0,0,0,0,
0,0,0,1108,1108,1108,1108,0,0,2557,2557,2557,2557,2557,2557,2557,1468,1469,1471,1470,0,
0,0,0,1140,1140,1140,1140,0,0,3059,3060,3059,3060,3059,3060,3059,3059,3060,1503,1502,0,
0,3075,3076,3075,3076,3075,3076,3075,3076,3075,3076,3075,3076,3075,3076,3075,3075,3076,1532,1534,0,
3060,3059,3060,3059,3060,3059,3060,3059,3060,3059,3060,3059,3060,3059,3060,3059,3060,3059,3060,3059,3060,
3076,3075,3076,3075,3076,3075,3076,3075,3076,3075,3076,3075,3076,3075,3076,3075,3076,3075,3076,3075,3076,
3060,3059,3060,3059,3060,3059,3060,3059,3060,3059,3060,3059,3060,3059,3060,3059,3060,3059,3060,3059,3060,
3076,3075,3076,3075,3076,3075,3076,3075,3076,3075,3076,3075,3076,3075,3076,3075,3076,3075,3076,3075,3076,
3060,3059,3060,3059,3060,3059,3060,3059,3060,3059,3060,3059,3060,3059,3060,3059,3060,3059,3060,3059,3060,
3076,3075,3076,3075,3076,3075,3076,3075,3076,3075,3076,3075,3076,3075,3076,3075,3076,3075,3076,3075,3076,
3060,3059,3060,3059,3060,3059,3060,3059,3060,3059,3060,3059,3060,3059,3060,3059,3060,3059,3060,3059,3060,
3076,3075,3076,3075,3076,3075,3076,3075,3076,3075,3076,3075,3076,3075,3076,3075,3076,3075,3076,3075,3076,
3060,3059,3060,3059,3060,3059,3060,3059,3060,3059,3060,3059,3060,3059,3060,3059,3060,3059,3060,3059,3060,
3076,3075,3076,3075,3076,3075,3076,3075,3076,3075,3076,3075,3076,3075,3076,3075,3076,3075,3076,3075,3076,
0,3059,3060,3059,3060,3059,3060,3059,3060,3059,3060,3059,3060,3059,3060,3059,3060,3059,3060,1063,0,
0,3075,3076,3075,3076,3075,3076,3075,3076,3075,3076,3075,3076,3075,3076,3075,3076,3075,3076,0,0,
0,0,3059,3060,3059,3060,3059,3060,3059,3060,3059,3060,0,0,0,0,0,0,0,0,0,
0,0,3075,3076,3075,3076,3075,3076,3075,3076,3075,3076,0,0,0,0,0,0,0,0,0,
0,0,0,3059,3060,3059,3060,3059,3060,3059,3060,0,0,0,0,0,0,0,0,0,0,
0,0,0,3075,3076,3075,3076,3075,3076,3075,3076,0,0,0,0,0,0,0,0,0,0,
0,0,0,0,0,0,0,0,0,0,0,0,0,0,0,0,0,0,0,0,0,
0,0,0,0,0,0,0,0,0,0,0,0,0,0,0,0,0,0,0,0,0,
0,0,0,0,0,0,0,0,0,0,0,0,0,0,0,0,0,0,0,0,0
</data>
 </layer>
 <layer id="2" name="Buildings" width="21" height="25">
  <data encoding="csv">
65,65,0,0,0,0,0,0,65,65,65,65,65,65,65,65,65,65,65,65,65,
65,65,0,0,0,0,0,0,2310,2311,2315,2316,2317,2316,2334,2335,65,65,65,65,65,
65,2310,2311,2312,0,0,2313,2314,2315,2399,0,0,0,0,0,2399,2315,2316,2334,2335,65,
2310,2311,2327,2328,0,0,2329,2306,2307,2328,0,0,0,0,0,2329,2371,2372,2350,2334,2335,
2325,2342,2343,2344,0,0,2345,2322,2323,2573,2573,2573,2573,2573,2573,2573,2387,2388,2366,2367,2368,
2341,2358,2359,2360,0,0,2361,2362,2363,2360,0,0,0,0,0,2361,2403,2404,2382,2354,2384,
2357,2374,2375,0,0,0,0,0,0,0,0,0,0,0,0,0,0,0,2398,2399,2400,
2373,1432,0,0,0,0,0,0,0,0,0,0,0,0,0,0,0,0,1424,1425,2416,
2325,0,0,0,0,0,0,0,0,0,0,0,0,0,0,0,0,0,0,1432,2416,
2341,0,0,0,0,0,0,0,0,0,0,0,0,0,0,0,0,0,0,0,2432,
2357,0,0,0,0,0,0,0,0,0,0,0,0,0,0,0,0,0,0,0,2448,
2373,0,0,0,0,0,0,0,0,0,0,0,0,0,0,0,0,0,0,0,2416,
2389,0,0,0,0,0,0,0,0,0,0,0,0,0,0,0,0,0,0,0,2432,
2405,0,0,0,0,0,0,0,0,0,0,0,0,0,0,0,0,0,0,0,2416,
2421,0,0,0,0,0,0,0,0,0,0,0,0,0,0,0,0,0,0,0,2432,
2437,0,0,0,0,0,0,0,0,0,0,0,0,0,0,0,0,0,0,0,2447,
65,2437,0,0,0,0,0,0,0,0,0,0,0,0,0,0,0,0,0,2462,65,
65,65,2389,0,0,0,0,0,0,0,0,0,2432,65,65,65,65,65,65,65,65,
65,65,2405,0,0,0,0,0,0,0,0,0,2447,65,65,65,65,65,65,65,65,
65,65,2421,0,0,0,0,0,0,0,0,2462,65,65,65,65,65,65,65,65,65,
65,65,2437,2438,0,0,0,0,0,0,2462,65,65,65,65,65,65,65,65,65,65,
65,65,65,2454,0,0,0,0,0,2462,65,65,65,65,65,65,65,65,65,65,65,
65,65,65,65,65,65,65,65,65,65,65,65,65,65,65,65,65,65,65,65,65,
0,0,0,0,0,0,0,0,0,0,0,0,0,0,0,0,0,0,0,0,0,
0,0,0,0,0,0,0,0,0,0,0,0,0,0,0,0,0,0,0,0,0
</data>
 </layer>
 <layer id="11" name="Buildings2" width="21" height="25">
  <data encoding="csv">
0,0,0,0,0,0,0,0,0,0,0,0,0,0,0,0,0,0,0,0,0,
0,0,0,0,0,0,0,0,0,0,0,0,0,0,0,0,0,0,0,0,0,
0,0,0,0,0,0,0,0,0,2312,0,0,0,0,0,2313,0,0,0,0,0,
0,0,0,0,0,0,0,0,0,0,0,0,0,0,0,0,0,0,0,0,0,
0,0,0,0,0,0,0,0,0,2344,0,0,0,0,0,2345,0,0,0,0,0,
0,0,0,0,0,0,0,0,0,0,0,0,0,0,0,0,0,0,0,0,0,
0,0,0,0,0,0,0,0,0,0,0,0,0,0,0,0,0,0,0,0,0,
0,0,0,0,0,0,0,0,0,0,0,0,0,0,0,0,0,0,0,0,0,
0,0,0,0,0,0,0,0,0,0,0,0,0,0,0,0,0,0,0,0,0,
0,0,0,0,0,0,0,0,0,0,0,0,0,0,0,0,0,0,0,0,0,
0,0,0,0,0,0,0,0,0,0,0,0,0,0,0,0,0,0,0,0,0,
0,0,0,0,0,0,0,0,0,0,0,0,0,0,0,0,0,0,0,0,0,
0,0,0,0,0,0,0,0,0,0,0,0,0,0,0,0,0,0,0,0,0,
0,0,0,0,0,0,0,0,0,0,0,0,0,0,0,0,0,0,0,0,0,
0,0,0,0,0,0,0,0,0,0,0,0,0,0,0,0,0,0,0,0,0,
0,0,0,0,0,0,0,0,0,0,0,0,0,0,0,0,0,0,0,0,0,
0,0,0,0,0,0,0,0,0,0,0,0,0,0,0,0,0,0,0,0,0,
0,0,0,0,0,0,0,0,0,0,0,0,0,0,0,0,0,0,0,0,0,
0,0,0,0,0,0,0,0,0,0,0,0,0,0,0,0,0,0,0,0,0,
0,0,0,0,0,0,0,0,0,0,0,0,0,0,0,0,0,0,0,0,0,
0,0,0,0,0,0,0,0,0,0,0,0,0,0,0,0,0,0,0,0,0,
0,0,0,0,0,0,0,0,0,0,0,0,0,0,0,0,0,0,0,0,0,
0,0,0,0,0,0,0,0,0,0,0,0,0,0,0,0,0,0,0,0,0,
0,0,0,0,0,0,0,0,0,0,0,0,0,0,0,0,0,0,0,0,0,
0,0,0,0,0,0,0,0,0,0,0,0,0,0,0,0,0,0,0,0,0
</data>
 </layer>
 <layer id="3" name="Front" width="21" height="25">
  <data encoding="csv">
0,0,65,65,65,65,65,65,0,0,0,0,0,0,0,0,0,0,0,0,0,
0,0,65,0,0,0,0,65,0,0,0,0,0,0,0,0,0,0,0,0,0,
0,0,0,0,0,0,0,0,0,0,0,0,0,0,0,0,0,0,0,0,0,
0,0,0,0,0,0,0,0,0,0,0,0,0,0,0,0,0,0,0,0,0,
0,0,0,0,0,0,0,0,0,0,0,0,0,0,0,0,0,0,0,0,0,
0,0,0,0,0,0,0,0,0,0,0,0,0,0,0,0,0,0,0,0,0,
0,1400,0,0,0,0,0,0,0,0,0,0,0,0,0,0,0,0,1392,1393,0,
0,0,0,0,0,0,0,0,0,0,0,0,0,0,0,0,0,0,0,1400,0,
0,0,0,0,0,0,0,0,0,0,0,0,0,0,0,0,0,0,0,0,0,
0,0,0,0,0,0,0,0,0,0,0,0,0,0,0,0,0,0,0,0,0,
0,0,0,0,0,0,0,0,0,0,0,0,0,0,0,0,0,0,0,0,0,
0,0,0,0,0,0,0,0,0,0,0,0,0,0,0,0,0,0,0,0,0,
0,0,0,0,0,0,0,0,0,0,0,0,0,0,0,0,0,0,0,0,0,
0,0,0,0,0,0,0,0,0,0,0,0,0,0,0,0,0,0,0,0,0,
0,0,0,0,0,0,0,0,0,0,0,0,0,0,0,0,0,0,0,0,0,
0,2438,0,0,0,0,0,0,0,0,0,0,0,0,0,0,0,0,0,2446,0,
0,0,2438,0,0,0,0,0,0,0,0,0,2446,2455,2456,2455,2456,2455,2456,0,0,
0,0,0,0,0,0,0,0,0,0,0,0,0,0,0,0,0,0,0,0,0,
0,0,0,0,0,0,0,0,0,0,0,2461,0,0,0,0,0,0,0,0,0,
0,0,0,0,0,0,0,0,0,0,2446,0,0,0,0,0,0,0,0,0,0,
0,0,0,0,0,0,0,0,0,2461,0,0,0,0,0,0,0,0,0,0,0,
0,0,0,0,2455,2456,2455,2456,2455,0,0,0,0,0,0,0,0,0,0,0,0,
0,0,0,0,0,0,0,0,0,0,0,0,0,0,0,0,0,0,0,0,0,
0,0,0,0,0,0,0,0,0,0,0,0,0,0,0,0,0,0,0,0,0,
0,0,0,0,0,0,0,0,0,0,0,0,0,0,0,0,0,0,0,0,0
</data>
 </layer>
 <layer id="4" name="Paths" width="21" height="25">
  <data encoding="csv">
0,0,0,0,0,0,0,0,0,0,0,0,0,0,0,0,0,0,0,0,0,
0,0,0,0,0,0,0,0,0,0,0,0,0,0,0,0,0,0,0,0,0,
0,0,0,0,9,0,0,0,0,0,0,0,0,0,0,0,0,0,0,0,0,
0,0,0,0,0,0,0,9,9,0,0,0,0,0,0,0,0,0,0,0,0,
0,0,0,0,0,0,0,9,9,0,0,0,0,0,0,0,0,0,0,0,0,
0,0,0,0,0,0,0,0,0,0,0,0,0,0,0,0,0,0,0,9,0,
0,0,0,0,0,0,0,0,0,0,0,0,0,0,0,0,0,0,0,0,0,
0,0,0,0,0,0,0,0,0,0,0,0,0,0,0,0,0,0,0,0,0,
0,0,0,0,0,0,0,0,0,0,0,0,0,0,0,0,0,0,0,0,0,
0,0,0,0,0,0,0,0,0,0,0,0,0,0,0,0,0,0,0,0,0,
0,0,0,0,0,0,0,0,0,0,0,0,0,0,0,0,0,0,0,0,0,
0,0,0,0,0,0,0,0,0,0,0,0,0,0,0,0,0,0,0,0,0,
0,0,0,0,0,0,0,0,0,0,0,0,0,0,0,0,0,0,0,0,0,
0,0,0,0,0,0,0,0,0,0,0,0,0,0,0,0,0,0,0,0,0,
0,0,0,0,0,0,0,0,0,0,0,0,0,0,0,0,0,0,0,0,0,
0,0,0,0,0,0,0,0,0,0,0,0,0,0,0,0,0,0,0,0,0,
0,0,0,0,0,0,0,0,0,0,0,0,0,0,0,0,0,0,0,0,0,
0,0,0,0,0,0,0,0,0,0,0,0,0,0,0,0,0,0,0,0,0,
0,0,0,0,0,0,0,0,0,0,0,0,0,0,0,0,0,0,0,0,0,
0,0,0,0,0,0,0,0,0,0,0,0,0,0,0,0,0,0,0,0,0,
0,0,0,0,0,0,0,0,0,0,0,0,0,0,0,0,0,0,0,0,0,
0,0,0,0,0,0,0,0,0,0,0,0,0,0,0,0,0,0,0,0,0,
0,0,0,0,0,0,0,0,0,0,0,0,0,0,0,0,0,0,0,0,0,
0,0,0,0,0,0,0,0,0,0,0,0,0,0,0,0,0,0,0,0,0,
0,0,0,0,0,0,0,0,0,0,0,0,0,0,0,0,0,0,0,0,0
</data>
 </layer>
 <layer id="5" name="AlwaysFront" width="21" height="25">
  <data encoding="csv">
0,0,65,65,65,65,65,65,0,0,0,0,0,0,0,0,0,0,0,0,0,
0,0,2310,2311,2314,2315,2334,2335,0,0,0,0,0,0,0,0,0,0,0,0,0,
0,0,0,2374,2375,2398,2399,0,0,0,2374,2375,2398,2399,2399,0,0,0,0,0,0,
0,0,0,0,0,0,0,0,0,0,0,0,0,0,0,0,0,0,0,0,0,
0,0,0,0,0,0,0,0,0,0,0,0,0,0,0,0,0,0,0,0,0,
0,0,0,0,0,0,0,0,0,0,0,0,0,0,0,0,0,0,0,0,0,
0,0,0,0,0,0,0,0,0,0,0,0,0,0,0,0,0,0,0,0,0,
0,0,0,0,0,0,0,0,0,0,0,0,0,0,0,0,0,0,0,0,0,
0,0,0,0,0,0,0,0,0,0,0,0,0,0,0,0,0,0,0,0,0,
0,0,0,0,0,0,0,0,0,0,0,0,0,0,0,0,0,0,0,0,0,
0,0,0,0,0,0,0,0,0,0,0,0,0,0,0,0,0,0,0,0,0,
0,0,0,0,0,0,0,0,0,0,0,0,0,0,0,0,0,0,0,0,0,
0,0,0,0,0,0,0,0,0,0,0,0,0,0,0,0,0,0,0,0,0,
0,0,0,0,0,0,0,0,0,0,0,0,0,0,0,0,0,0,0,0,0,
0,0,0,0,0,0,0,0,0,0,0,0,0,0,0,0,0,0,0,0,0,
0,0,0,0,0,0,0,0,0,0,0,0,0,0,0,0,0,0,0,0,0,
0,0,0,0,0,0,0,0,0,0,0,0,0,0,0,0,0,0,0,0,0,
0,0,0,0,0,0,0,0,0,0,0,0,0,0,0,0,0,0,0,0,0,
0,0,0,0,0,0,0,0,0,0,0,0,0,0,0,0,0,0,0,0,0,
0,0,0,0,0,0,0,0,0,0,0,0,0,0,0,0,0,0,0,0,0,
0,0,0,0,0,0,0,0,0,0,0,0,0,0,0,0,0,0,0,0,0,
0,0,0,0,0,0,0,0,0,0,0,0,0,0,0,0,0,0,0,0,0,
0,0,0,0,0,0,0,0,0,0,0,0,0,0,0,0,0,0,0,0,0,
0,0,0,0,0,0,0,0,0,0,0,0,0,0,0,0,0,0,0,0,0,
0,0,0,0,0,0,0,0,0,0,0,0,0,0,0,0,0,0,0,0,0
</data>
 </layer>
 <objectgroup id="6" name="Back" visible="0">
  <object id="1" name="TileData" x="64" y="16" width="16" height="16">
   <properties>
    <property name="NoFurniture" value="T"/>
   </properties>
  </object>
  <object id="2" name="TileData" x="80" y="16" width="16" height="16">
   <properties>
    <property name="NoFurniture" value="T"/>
   </properties>
  </object>
  <object id="3" name="TileData" x="64" y="32" width="16" height="16">
   <properties>
    <property name="NoFurniture" value="T"/>
   </properties>
  </object>
  <object id="4" name="TileData" x="80" y="32" width="16" height="16">
   <properties>
    <property name="NoFurniture" value="T"/>
   </properties>
  </object>
  <object id="5" name="TileData" x="64" y="48" width="16" height="16">
   <properties>
    <property name="NoFurniture" value="T"/>
   </properties>
  </object>
  <object id="6" name="TileData" x="80" y="48" width="16" height="16">
   <properties>
    <property name="NoFurniture" value="T"/>
   </properties>
  </object>
  <object id="7" name="TileData" x="64" y="64" width="16" height="16">
   <properties>
    <property name="NoFurniture" value="T"/>
   </properties>
  </object>
  <object id="8" name="TileData" x="80" y="64" width="16" height="16">
   <properties>
    <property name="NoFurniture" value="T"/>
   </properties>
  </object>
  <object id="9" name="TileData" x="160" y="80" width="16" height="16">
   <properties>
    <property name="FloorID" value="Main"/>
   </properties>
  </object>
  <object id="10" name="TileData" x="176" y="80" width="16" height="16">
   <properties>
    <property name="FloorID" value="Main"/>
   </properties>
  </object>
  <object id="11" name="TileData" x="192" y="80" width="16" height="16">
   <properties>
    <property name="FloorID" value="Main"/>
   </properties>
  </object>
  <object id="12" name="TileData" x="208" y="80" width="16" height="16">
   <properties>
    <property name="FloorID" value="Main"/>
   </properties>
  </object>
  <object id="13" name="TileData" x="224" y="80" width="16" height="16">
   <properties>
    <property name="FloorID" value="Main"/>
   </properties>
  </object>
  <object id="14" name="TileData" x="240" y="80" width="16" height="16">
   <properties>
    <property name="FloorID" value="Main"/>
   </properties>
  </object>
  <object id="15" name="TileData" x="256" y="80" width="16" height="16">
   <properties>
    <property name="FloorID" value="Main"/>
   </properties>
  </object>
  <object id="16" name="TileData" x="272" y="80" width="16" height="16">
   <properties>
    <property name="FloorID" value="Main"/>
   </properties>
  </object>
  <object id="17" name="TileData" x="144" y="80" width="16" height="16">
   <properties>
    <property name="FloorID" value="Main"/>
   </properties>
  </object>
  <object id="18" name="TileData" x="128" y="80" width="16" height="16">
   <properties>
    <property name="FloorID" value="Main"/>
   </properties>
  </object>
  <object id="19" name="TileData" x="112" y="80" width="16" height="16">
   <properties>
    <property name="FloorID" value="Main"/>
   </properties>
  </object>
  <object id="20" name="TileData" x="96" y="80" width="16" height="16">
   <properties>
    <property name="FloorID" value="Main"/>
   </properties>
  </object>
  <object id="21" name="TileData" x="80" y="80" width="16" height="16">
   <properties>
    <property name="FloorID" value="Main"/>
   </properties>
  </object>
  <object id="22" name="TileData" x="64" y="80" width="16" height="16">
   <properties>
    <property name="FloorID" value="Main"/>
   </properties>
  </object>
  <object id="23" name="TileData" x="48" y="80" width="16" height="16">
   <properties>
    <property name="FloorID" value="Main"/>
   </properties>
  </object>
  <object id="24" name="TileData" x="32" y="96" width="16" height="16">
   <properties>
    <property name="FloorID" value="Main"/>
   </properties>
  </object>
  <object id="25" name="TileData" x="48" y="96" width="16" height="16">
   <properties>
    <property name="FloorID" value="Main"/>
   </properties>
  </object>
  <object id="26" name="TileData" x="16" y="96" width="16" height="16">
   <properties>
    <property name="FloorID" value="Main"/>
   </properties>
  </object>
  <object id="27" name="TileData" x="16" y="112" width="16" height="16">
   <properties>
    <property name="FloorID" value="Main"/>
   </properties>
  </object>
  <object id="28" name="TileData" x="32" y="112" width="16" height="16">
   <properties>
    <property name="FloorID" value="Main"/>
   </properties>
  </object>
  <object id="29" name="TileData" x="0" y="112" width="16" height="16">
   <properties>
    <property name="FloorID" value="Main"/>
   </properties>
  </object>
  <object id="30" name="TileData" x="0" y="128" width="16" height="16">
   <properties>
    <property name="FloorID" value="Main"/>
   </properties>
  </object>
  <object id="31" name="TileData" x="0" y="144" width="16" height="16">
   <properties>
    <property name="FloorID" value="Main"/>
   </properties>
  </object>
  <object id="32" name="TileData" x="0" y="160" width="16" height="16">
   <properties>
    <property name="FloorID" value="Main"/>
   </properties>
  </object>
  <object id="33" name="TileData" x="0" y="176" width="16" height="16">
   <properties>
    <property name="FloorID" value="Main"/>
   </properties>
  </object>
  <object id="34" name="TileData" x="0" y="192" width="16" height="16">
   <properties>
    <property name="FloorID" value="Main"/>
   </properties>
  </object>
  <object id="35" name="TileData" x="0" y="208" width="16" height="16">
   <properties>
    <property name="FloorID" value="Main"/>
   </properties>
  </object>
  <object id="36" name="TileData" x="0" y="224" width="16" height="16">
   <properties>
    <property name="FloorID" value="Main"/>
   </properties>
  </object>
  <object id="37" name="TileData" x="0" y="240" width="16" height="16">
   <properties>
    <property name="FloorID" value="Main"/>
   </properties>
  </object>
  <object id="38" name="TileData" x="16" y="240" width="16" height="16">
   <properties>
    <property name="FloorID" value="Main"/>
   </properties>
  </object>
  <object id="39" name="TileData" x="16" y="224" width="16" height="16">
   <properties>
    <property name="FloorID" value="Main"/>
   </properties>
  </object>
  <object id="40" name="TileData" x="16" y="208" width="16" height="16">
   <properties>
    <property name="FloorID" value="Main"/>
   </properties>
  </object>
  <object id="41" name="TileData" x="16" y="192" width="16" height="16">
   <properties>
    <property name="FloorID" value="Main"/>
   </properties>
  </object>
  <object id="42" name="TileData" x="16" y="176" width="16" height="16">
   <properties>
    <property name="FloorID" value="Main"/>
   </properties>
  </object>
  <object id="43" name="TileData" x="16" y="160" width="16" height="16">
   <properties>
    <property name="FloorID" value="Main"/>
   </properties>
  </object>
  <object id="44" name="TileData" x="16" y="144" width="16" height="16">
   <properties>
    <property name="FloorID" value="Main"/>
   </properties>
  </object>
  <object id="45" name="TileData" x="16" y="128" width="16" height="16">
   <properties>
    <property name="FloorID" value="Main"/>
   </properties>
  </object>
  <object id="46" name="TileData" x="32" y="128" width="16" height="16">
   <properties>
    <property name="FloorID" value="Main"/>
   </properties>
  </object>
  <object id="47" name="TileData" x="32" y="144" width="16" height="16">
   <properties>
    <property name="FloorID" value="Main"/>
   </properties>
  </object>
  <object id="48" name="TileData" x="32" y="160" width="16" height="16">
   <properties>
    <property name="FloorID" value="Main"/>
   </properties>
  </object>
  <object id="49" name="TileData" x="32" y="176" width="16" height="16">
   <properties>
    <property name="FloorID" value="Main"/>
   </properties>
  </object>
  <object id="50" name="TileData" x="32" y="192" width="16" height="16">
   <properties>
    <property name="FloorID" value="Main"/>
   </properties>
  </object>
  <object id="51" name="TileData" x="32" y="208" width="16" height="16">
   <properties>
    <property name="FloorID" value="Main"/>
   </properties>
  </object>
  <object id="52" name="TileData" x="32" y="224" width="16" height="16">
   <properties>
    <property name="FloorID" value="Main"/>
   </properties>
  </object>
  <object id="53" name="TileData" x="32" y="240" width="16" height="16">
   <properties>
    <property name="FloorID" value="Main"/>
   </properties>
  </object>
  <object id="54" name="TileData" x="32" y="256" width="16" height="16">
   <properties>
    <property name="FloorID" value="Main"/>
   </properties>
  </object>
  <object id="55" name="TileData" x="32" y="272" width="16" height="16">
   <properties>
    <property name="FloorID" value="Main"/>
   </properties>
  </object>
  <object id="56" name="TileData" x="32" y="288" width="16" height="16">
   <properties>
    <property name="FloorID" value="Main"/>
   </properties>
  </object>
  <object id="57" name="TileData" x="32" y="304" width="16" height="16">
   <properties>
    <property name="FloorID" value="Main"/>
   </properties>
  </object>
  <object id="58" name="TileData" x="48" y="320" width="16" height="16">
   <properties>
    <property name="FloorID" value="Main"/>
   </properties>
  </object>
  <object id="59" name="TileData" x="64" y="336" width="16" height="16">
   <properties>
    <property name="FloorID" value="Main"/>
   </properties>
  </object>
  <object id="60" name="TileData" x="80" y="336" width="16" height="16">
   <properties>
    <property name="FloorID" value="Main"/>
   </properties>
  </object>
  <object id="61" name="TileData" x="96" y="336" width="16" height="16">
   <properties>
    <property name="FloorID" value="Main"/>
   </properties>
  </object>
  <object id="62" name="TileData" x="112" y="336" width="16" height="16">
   <properties>
    <property name="FloorID" value="Main"/>
   </properties>
  </object>
  <object id="63" name="TileData" x="128" y="336" width="16" height="16">
   <properties>
    <property name="FloorID" value="Main"/>
   </properties>
  </object>
  <object id="64" name="TileData" x="144" y="320" width="16" height="16">
   <properties>
    <property name="FloorID" value="Main"/>
   </properties>
  </object>
  <object id="65" name="TileData" x="160" y="304" width="16" height="16">
   <properties>
    <property name="FloorID" value="Main"/>
   </properties>
  </object>
  <object id="66" name="TileData" x="176" y="288" width="16" height="16">
   <properties>
    <property name="FloorID" value="Main"/>
   </properties>
  </object>
  <object id="67" name="TileData" x="160" y="288" width="16" height="16">
   <properties>
    <property name="FloorID" value="Main"/>
   </properties>
  </object>
  <object id="68" name="TileData" x="144" y="288" width="16" height="16">
   <properties>
    <property name="FloorID" value="Main"/>
   </properties>
  </object>
  <object id="69" name="TileData" x="128" y="288" width="16" height="16">
   <properties>
    <property name="FloorID" value="Main"/>
   </properties>
  </object>
  <object id="70" name="TileData" x="112" y="288" width="16" height="16">
   <properties>
    <property name="FloorID" value="Main"/>
   </properties>
  </object>
  <object id="71" name="TileData" x="96" y="288" width="16" height="16">
   <properties>
    <property name="FloorID" value="Main"/>
   </properties>
  </object>
  <object id="72" name="TileData" x="80" y="288" width="16" height="16">
   <properties>
    <property name="FloorID" value="Main"/>
   </properties>
  </object>
  <object id="73" name="TileData" x="64" y="288" width="16" height="16">
   <properties>
    <property name="FloorID" value="Main"/>
   </properties>
  </object>
  <object id="74" name="TileData" x="48" y="288" width="16" height="16">
   <properties>
    <property name="FloorID" value="Main"/>
   </properties>
  </object>
  <object id="75" name="TileData" x="48" y="304" width="16" height="16">
   <properties>
    <property name="FloorID" value="Main"/>
   </properties>
  </object>
  <object id="76" name="TileData" x="64" y="304" width="16" height="16">
   <properties>
    <property name="FloorID" value="Main"/>
   </properties>
  </object>
  <object id="77" name="TileData" x="64" y="320" width="16" height="16">
   <properties>
    <property name="FloorID" value="Main"/>
   </properties>
  </object>
  <object id="78" name="TileData" x="80" y="304" width="16" height="16">
   <properties>
    <property name="FloorID" value="Main"/>
   </properties>
  </object>
  <object id="79" name="TileData" x="80" y="320" width="16" height="16">
   <properties>
    <property name="FloorID" value="Main"/>
   </properties>
  </object>
  <object id="80" name="TileData" x="96" y="320" width="16" height="16">
   <properties>
    <property name="FloorID" value="Main"/>
   </properties>
  </object>
  <object id="81" name="TileData" x="96" y="304" width="16" height="16">
   <properties>
    <property name="FloorID" value="Main"/>
   </properties>
  </object>
  <object id="82" name="TileData" x="112" y="304" width="16" height="16">
   <properties>
    <property name="FloorID" value="Main"/>
   </properties>
  </object>
  <object id="83" name="TileData" x="112" y="320" width="16" height="16">
   <properties>
    <property name="FloorID" value="Main"/>
   </properties>
  </object>
  <object id="84" name="TileData" x="128" y="320" width="16" height="16">
   <properties>
    <property name="FloorID" value="Main"/>
   </properties>
  </object>
  <object id="85" name="TileData" x="128" y="304" width="16" height="16">
   <properties>
    <property name="FloorID" value="Main"/>
   </properties>
  </object>
  <object id="86" name="TileData" x="144" y="304" width="16" height="16">
   <properties>
    <property name="FloorID" value="Main"/>
   </properties>
  </object>
  <object id="87" name="TileData" x="48" y="272" width="16" height="16">
   <properties>
    <property name="FloorID" value="Main"/>
   </properties>
  </object>
  <object id="88" name="TileData" x="64" y="272" width="16" height="16">
   <properties>
    <property name="FloorID" value="Main"/>
   </properties>
  </object>
  <object id="89" name="TileData" x="80" y="272" width="16" height="16">
   <properties>
    <property name="FloorID" value="Main"/>
   </properties>
  </object>
  <object id="90" name="TileData" x="96" y="272" width="16" height="16">
   <properties>
    <property name="FloorID" value="Main"/>
   </properties>
  </object>
  <object id="91" name="TileData" x="112" y="272" width="16" height="16">
   <properties>
    <property name="FloorID" value="Main"/>
   </properties>
  </object>
  <object id="92" name="TileData" x="128" y="272" width="16" height="16">
   <properties>
    <property name="FloorID" value="Main"/>
   </properties>
  </object>
  <object id="93" name="TileData" x="144" y="272" width="16" height="16">
   <properties>
    <property name="FloorID" value="Main"/>
   </properties>
  </object>
  <object id="94" name="TileData" x="160" y="272" width="16" height="16">
   <properties>
    <property name="FloorID" value="Main"/>
   </properties>
  </object>
  <object id="95" name="TileData" x="176" y="272" width="16" height="16">
   <properties>
    <property name="FloorID" value="Main"/>
   </properties>
  </object>
  <object id="96" name="TileData" x="176" y="256" width="16" height="16">
   <properties>
    <property name="FloorID" value="Main"/>
   </properties>
  </object>
  <object id="97" name="TileData" x="160" y="256" width="16" height="16">
   <properties>
    <property name="FloorID" value="Main"/>
   </properties>
  </object>
  <object id="98" name="TileData" x="144" y="256" width="16" height="16">
   <properties>
    <property name="FloorID" value="Main"/>
   </properties>
  </object>
  <object id="99" name="TileData" x="128" y="256" width="16" height="16">
   <properties>
    <property name="FloorID" value="Main"/>
   </properties>
  </object>
  <object id="100" name="TileData" x="112" y="256" width="16" height="16">
   <properties>
    <property name="FloorID" value="Main"/>
   </properties>
  </object>
  <object id="101" name="TileData" x="96" y="256" width="16" height="16">
   <properties>
    <property name="FloorID" value="Main"/>
   </properties>
  </object>
  <object id="102" name="TileData" x="80" y="256" width="16" height="16">
   <properties>
    <property name="FloorID" value="Main"/>
   </properties>
  </object>
  <object id="103" name="TileData" x="64" y="256" width="16" height="16">
   <properties>
    <property name="FloorID" value="Main"/>
   </properties>
  </object>
  <object id="104" name="TileData" x="48" y="256" width="16" height="16">
   <properties>
    <property name="FloorID" value="Main"/>
   </properties>
  </object>
  <object id="105" name="TileData" x="192" y="256" width="16" height="16">
   <properties>
    <property name="FloorID" value="Main"/>
   </properties>
  </object>
  <object id="106" name="TileData" x="208" y="256" width="16" height="16">
   <properties>
    <property name="FloorID" value="Main"/>
   </properties>
  </object>
  <object id="107" name="TileData" x="224" y="256" width="16" height="16">
   <properties>
    <property name="FloorID" value="Main"/>
   </properties>
  </object>
  <object id="108" name="TileData" x="240" y="256" width="16" height="16">
   <properties>
    <property name="FloorID" value="Main"/>
   </properties>
  </object>
  <object id="109" name="TileData" x="256" y="256" width="16" height="16">
   <properties>
    <property name="FloorID" value="Main"/>
   </properties>
  </object>
  <object id="110" name="TileData" x="272" y="256" width="16" height="16">
   <properties>
    <property name="FloorID" value="Main"/>
   </properties>
  </object>
  <object id="111" name="TileData" x="288" y="256" width="16" height="16">
   <properties>
    <property name="FloorID" value="Main"/>
   </properties>
  </object>
  <object id="112" name="TileData" x="304" y="240" width="16" height="16">
   <properties>
    <property name="FloorID" value="Main"/>
   </properties>
  </object>
  <object id="113" name="TileData" x="320" y="224" width="16" height="16">
   <properties>
    <property name="FloorID" value="Main"/>
   </properties>
  </object>
  <object id="114" name="TileData" x="320" y="208" width="16" height="16">
   <properties>
    <property name="FloorID" value="Main"/>
   </properties>
  </object>
  <object id="115" name="TileData" x="320" y="192" width="16" height="16">
   <properties>
    <property name="FloorID" value="Main"/>
   </properties>
  </object>
  <object id="116" name="TileData" x="320" y="176" width="16" height="16">
   <properties>
    <property name="FloorID" value="Main"/>
   </properties>
  </object>
  <object id="117" name="TileData" x="320" y="160" width="16" height="16">
   <properties>
    <property name="FloorID" value="Main"/>
   </properties>
  </object>
  <object id="118" name="TileData" x="320" y="144" width="16" height="16">
   <properties>
    <property name="FloorID" value="Main"/>
   </properties>
  </object>
  <object id="119" name="TileData" x="320" y="128" width="16" height="16">
   <properties>
    <property name="FloorID" value="Main"/>
   </properties>
  </object>
  <object id="120" name="TileData" x="320" y="112" width="16" height="16">
   <properties>
    <property name="FloorID" value="Main"/>
   </properties>
  </object>
  <object id="121" name="TileData" x="272" y="96" width="16" height="16">
   <properties>
    <property name="FloorID" value="Main"/>
   </properties>
  </object>
  <object id="122" name="TileData" x="288" y="96" width="16" height="16">
   <properties>
    <property name="FloorID" value="Main"/>
   </properties>
  </object>
  <object id="123" name="TileData" x="304" y="96" width="16" height="16">
   <properties>
    <property name="FloorID" value="Main"/>
   </properties>
  </object>
  <object id="124" name="TileData" x="304" y="112" width="16" height="16">
   <properties>
    <property name="FloorID" value="Main"/>
   </properties>
  </object>
  <object id="125" name="TileData" x="64" y="96" width="16" height="16">
   <properties>
    <property name="FloorID" value="Main"/>
   </properties>
  </object>
  <object id="126" name="TileData" x="80" y="96" width="16" height="16">
   <properties>
    <property name="FloorID" value="Main"/>
   </properties>
  </object>
  <object id="127" name="TileData" x="96" y="96" width="16" height="16">
   <properties>
    <property name="FloorID" value="Main"/>
   </properties>
  </object>
  <object id="128" name="TileData" x="112" y="96" width="16" height="16">
   <properties>
    <property name="FloorID" value="Main"/>
   </properties>
  </object>
  <object id="129" name="TileData" x="128" y="96" width="16" height="16">
   <properties>
    <property name="FloorID" value="Main"/>
   </properties>
  </object>
  <object id="130" name="TileData" x="144" y="96" width="16" height="16">
   <properties>
    <property name="FloorID" value="Main"/>
   </properties>
  </object>
  <object id="131" name="TileData" x="160" y="96" width="16" height="16">
   <properties>
    <property name="FloorID" value="Main"/>
   </properties>
  </object>
  <object id="132" name="TileData" x="176" y="96" width="16" height="16">
   <properties>
    <property name="FloorID" value="Main"/>
   </properties>
  </object>
  <object id="133" name="TileData" x="192" y="96" width="16" height="16">
   <properties>
    <property name="FloorID" value="Main"/>
   </properties>
  </object>
  <object id="134" name="TileData" x="224" y="96" width="16" height="16">
   <properties>
    <property name="FloorID" value="Main"/>
   </properties>
  </object>
  <object id="135" name="TileData" x="208" y="96" width="16" height="16">
   <properties>
    <property name="FloorID" value="Main"/>
   </properties>
  </object>
  <object id="136" name="TileData" x="240" y="96" width="16" height="16">
   <properties>
    <property name="FloorID" value="Main"/>
   </properties>
  </object>
  <object id="137" name="TileData" x="256" y="96" width="16" height="16">
   <properties>
    <property name="FloorID" value="Main"/>
   </properties>
  </object>
  <object id="138" name="TileData" x="272" y="112" width="16" height="16">
   <properties>
    <property name="FloorID" value="Main"/>
   </properties>
  </object>
  <object id="139" name="TileData" x="288" y="112" width="16" height="16">
   <properties>
    <property name="FloorID" value="Main"/>
   </properties>
  </object>
  <object id="140" name="TileData" x="288" y="128" width="16" height="16">
   <properties>
    <property name="FloorID" value="Main"/>
   </properties>
  </object>
  <object id="141" name="TileData" x="304" y="128" width="16" height="16">
   <properties>
    <property name="FloorID" value="Main"/>
   </properties>
  </object>
  <object id="142" name="TileData" x="272" y="128" width="16" height="16">
   <properties>
    <property name="FloorID" value="Main"/>
   </properties>
  </object>
  <object id="143" name="TileData" x="256" y="112" width="16" height="16">
   <properties>
    <property name="FloorID" value="Main"/>
   </properties>
  </object>
  <object id="144" name="TileData" x="240" y="128" width="16" height="16">
   <properties>
    <property name="FloorID" value="Main"/>
   </properties>
  </object>
  <object id="145" name="TileData" x="240" y="144" width="16" height="16">
   <properties>
    <property name="FloorID" value="Main"/>
   </properties>
  </object>
  <object id="146" name="TileData" x="256" y="128" width="16" height="16">
   <properties>
    <property name="FloorID" value="Main"/>
   </properties>
  </object>
  <object id="147" name="TileData" x="240" y="112" width="16" height="16">
   <properties>
    <property name="FloorID" value="Main"/>
   </properties>
  </object>
  <object id="148" name="TileData" x="224" y="112" width="16" height="16">
   <properties>
    <property name="FloorID" value="Main"/>
   </properties>
  </object>
  <object id="149" name="TileData" x="208" y="128" width="16" height="16">
   <properties>
    <property name="FloorID" value="Main"/>
   </properties>
  </object>
  <object id="150" name="TileData" x="224" y="128" width="16" height="16">
   <properties>
    <property name="FloorID" value="Main"/>
   </properties>
  </object>
  <object id="151" name="TileData" x="208" y="112" width="16" height="16">
   <properties>
    <property name="FloorID" value="Main"/>
   </properties>
  </object>
  <object id="152" name="TileData" x="192" y="112" width="16" height="16">
   <properties>
    <property name="FloorID" value="Main"/>
   </properties>
  </object>
  <object id="153" name="TileData" x="176" y="112" width="16" height="16">
   <properties>
    <property name="FloorID" value="Main"/>
   </properties>
  </object>
  <object id="154" name="TileData" x="160" y="112" width="16" height="16">
   <properties>
    <property name="FloorID" value="Main"/>
   </properties>
  </object>
  <object id="155" name="TileData" x="128" y="112" width="16" height="16">
   <properties>
    <property name="FloorID" value="Main"/>
   </properties>
  </object>
  <object id="156" name="TileData" x="144" y="112" width="16" height="16">
   <properties>
    <property name="FloorID" value="Main"/>
   </properties>
  </object>
  <object id="157" name="TileData" x="112" y="112" width="16" height="16">
   <properties>
    <property name="FloorID" value="Main"/>
   </properties>
  </object>
  <object id="158" name="TileData" x="96" y="112" width="16" height="16">
   <properties>
    <property name="FloorID" value="Main"/>
   </properties>
  </object>
  <object id="159" name="TileData" x="80" y="112" width="16" height="16">
   <properties>
    <property name="FloorID" value="Main"/>
   </properties>
  </object>
  <object id="160" name="TileData" x="64" y="112" width="16" height="16">
   <properties>
    <property name="FloorID" value="Main"/>
   </properties>
  </object>
  <object id="161" name="TileData" x="48" y="112" width="16" height="16">
   <properties>
    <property name="FloorID" value="Main"/>
   </properties>
  </object>
  <object id="162" name="TileData" x="48" y="128" width="16" height="16">
   <properties>
    <property name="FloorID" value="Main"/>
   </properties>
  </object>
  <object id="163" name="TileData" x="64" y="128" width="16" height="16">
   <properties>
    <property name="FloorID" value="Main"/>
   </properties>
  </object>
  <object id="164" name="TileData" x="80" y="128" width="16" height="16">
   <properties>
    <property name="FloorID" value="Main"/>
   </properties>
  </object>
  <object id="165" name="TileData" x="96" y="128" width="16" height="16">
   <properties>
    <property name="FloorID" value="Main"/>
   </properties>
  </object>
  <object id="166" name="TileData" x="160" y="192" width="16" height="16">
   <properties>
    <property name="FloorID" value="Main"/>
   </properties>
  </object>
  <object id="167" name="TileData" x="176" y="176" width="16" height="16">
   <properties>
    <property name="FloorID" value="Main"/>
   </properties>
  </object>
  <object id="168" name="TileData" x="160" y="176" width="16" height="16">
   <properties>
    <property name="FloorID" value="Main"/>
   </properties>
  </object>
  <object id="169" name="TileData" x="80" y="176" width="16" height="16">
   <properties>
    <property name="FloorID" value="Main"/>
   </properties>
  </object>
  <object id="170" name="TileData" x="128" y="160" width="16" height="16">
   <properties>
    <property name="FloorID" value="Main"/>
   </properties>
  </object>
  <object id="171" name="TileData" x="112" y="160" width="16" height="16">
   <properties>
    <property name="FloorID" value="Main"/>
   </properties>
  </object>
  <object id="172" name="TileData" x="96" y="160" width="16" height="16">
   <properties>
    <property name="FloorID" value="Main"/>
   </properties>
  </object>
  <object id="173" name="TileData" x="80" y="160" width="16" height="16">
   <properties>
    <property name="FloorID" value="Main"/>
   </properties>
  </object>
  <object id="174" name="TileData" x="112" y="128" width="16" height="16">
   <properties>
    <property name="FloorID" value="Main"/>
   </properties>
  </object>
  <object id="175" name="TileData" x="128" y="128" width="16" height="16">
   <properties>
    <property name="FloorID" value="Main"/>
   </properties>
  </object>
  <object id="176" name="TileData" x="208" y="176" width="16" height="16">
   <properties>
    <property name="FloorID" value="Main"/>
   </properties>
  </object>
  <object id="177" name="TileData" x="192" y="192" width="16" height="16">
   <properties>
    <property name="FloorID" value="Main"/>
   </properties>
  </object>
  <object id="178" name="TileData" x="176" y="208" width="16" height="16">
   <properties>
    <property name="FloorID" value="Main"/>
   </properties>
  </object>
  <object id="179" name="TileData" x="176" y="192" width="16" height="16">
   <properties>
    <property name="FloorID" value="Main"/>
   </properties>
  </object>
  <object id="180" name="TileData" x="144" y="128" width="16" height="16">
   <properties>
    <property name="FloorID" value="Main"/>
   </properties>
  </object>
  <object id="181" name="TileData" x="208" y="144" width="16" height="16">
   <properties>
    <property name="FloorID" value="Main"/>
   </properties>
  </object>
  <object id="182" name="TileData" x="208" y="192" width="16" height="16">
   <properties>
    <property name="FloorID" value="Main"/>
   </properties>
  </object>
  <object id="183" name="TileData" x="160" y="128" width="16" height="16">
   <properties>
    <property name="FloorID" value="Main"/>
   </properties>
  </object>
  <object id="184" name="TileData" x="176" y="128" width="16" height="16">
   <properties>
    <property name="FloorID" value="Main"/>
   </properties>
  </object>
  <object id="186" name="TileData" x="304" y="176" width="16" height="16">
   <properties>
    <property name="FloorID" value="Main"/>
   </properties>
  </object>
  <object id="187" name="TileData" x="304" y="160" width="16" height="16">
   <properties>
    <property name="FloorID" value="Main"/>
   </properties>
  </object>
  <object id="188" name="TileData" x="288" y="160" width="16" height="16">
   <properties>
    <property name="FloorID" value="Main"/>
   </properties>
  </object>
  <object id="189" name="TileData" x="304" y="144" width="16" height="16">
   <properties>
    <property name="FloorID" value="Main"/>
   </properties>
  </object>
  <object id="190" name="TileData" x="192" y="128" width="16" height="16">
   <properties>
    <property name="FloorID" value="Main"/>
   </properties>
  </object>
  <object id="191" name="TileData" x="288" y="144" width="16" height="16">
   <properties>
    <property name="FloorID" value="Main"/>
   </properties>
  </object>
  <object id="192" name="TileData" x="272" y="144" width="16" height="16">
   <properties>
    <property name="FloorID" value="Main"/>
   </properties>
  </object>
  <object id="193" name="TileData" x="256" y="144" width="16" height="16">
   <properties>
    <property name="FloorID" value="Main"/>
   </properties>
  </object>
  <object id="194" name="TileData" x="224" y="144" width="16" height="16">
   <properties>
    <property name="FloorID" value="Main"/>
   </properties>
  </object>
  <object id="195" name="TileData" x="192" y="144" width="16" height="16">
   <properties>
    <property name="FloorID" value="Main"/>
   </properties>
  </object>
  <object id="196" name="TileData" x="96" y="224" width="16" height="16">
   <properties>
    <property name="FloorID" value="Main"/>
   </properties>
  </object>
  <object id="197" name="TileData" x="176" y="144" width="16" height="16">
   <properties>
    <property name="FloorID" value="Main"/>
   </properties>
  </object>
  <object id="198" name="TileData" x="160" y="144" width="16" height="16">
   <properties>
    <property name="FloorID" value="Main"/>
   </properties>
  </object>
  <object id="199" name="TileData" x="144" y="144" width="16" height="16">
   <properties>
    <property name="FloorID" value="Main"/>
   </properties>
  </object>
  <object id="200" name="TileData" x="128" y="144" width="16" height="16">
   <properties>
    <property name="FloorID" value="Main"/>
   </properties>
  </object>
  <object id="201" name="TileData" x="112" y="144" width="16" height="16">
   <properties>
    <property name="FloorID" value="Main"/>
   </properties>
  </object>
  <object id="202" name="TileData" x="96" y="144" width="16" height="16">
   <properties>
    <property name="FloorID" value="Main"/>
   </properties>
  </object>
  <object id="203" name="TileData" x="144" y="192" width="16" height="16">
   <properties>
    <property name="FloorID" value="Main"/>
   </properties>
  </object>
  <object id="204" name="TileData" x="80" y="144" width="16" height="16">
   <properties>
    <property name="FloorID" value="Main"/>
   </properties>
  </object>
  <object id="205" name="TileData" x="144" y="176" width="16" height="16">
   <properties>
    <property name="FloorID" value="Main"/>
   </properties>
  </object>
  <object id="206" name="TileData" x="64" y="144" width="16" height="16">
   <properties>
    <property name="FloorID" value="Main"/>
   </properties>
  </object>
  <object id="207" name="TileData" x="128" y="192" width="16" height="16">
   <properties>
    <property name="FloorID" value="Main"/>
   </properties>
  </object>
  <object id="208" name="TileData" x="48" y="144" width="16" height="16">
   <properties>
    <property name="FloorID" value="Main"/>
   </properties>
  </object>
  <object id="209" name="TileData" x="48" y="208" width="16" height="16">
   <properties>
    <property name="FloorID" value="Main"/>
   </properties>
  </object>
  <object id="210" name="TileData" x="48" y="192" width="16" height="16">
   <properties>
    <property name="FloorID" value="Main"/>
   </properties>
  </object>
  <object id="211" name="TileData" x="48" y="176" width="16" height="16">
   <properties>
    <property name="FloorID" value="Main"/>
   </properties>
  </object>
  <object id="212" name="TileData" x="48" y="160" width="16" height="16">
   <properties>
    <property name="FloorID" value="Main"/>
   </properties>
  </object>
  <object id="213" name="TileData" x="64" y="160" width="16" height="16">
   <properties>
    <property name="FloorID" value="Main"/>
   </properties>
  </object>
  <object id="214" name="TileData" x="80" y="192" width="16" height="16">
   <properties>
    <property name="FloorID" value="Main"/>
   </properties>
  </object>
  <object id="215" name="TileData" x="96" y="192" width="16" height="16">
   <properties>
    <property name="FloorID" value="Main"/>
   </properties>
  </object>
  <object id="216" name="TileData" x="112" y="176" width="16" height="16">
   <properties>
    <property name="FloorID" value="Main"/>
   </properties>
  </object>
  <object id="217" name="TileData" x="64" y="176" width="16" height="16">
   <properties>
    <property name="FloorID" value="Main"/>
   </properties>
  </object>
  <object id="218" name="TileData" x="96" y="176" width="16" height="16">
   <properties>
    <property name="FloorID" value="Main"/>
   </properties>
  </object>
  <object id="219" name="TileData" x="128" y="176" width="16" height="16">
   <properties>
    <property name="FloorID" value="Main"/>
   </properties>
  </object>
  <object id="220" name="TileData" x="144" y="160" width="16" height="16">
   <properties>
    <property name="FloorID" value="Main"/>
   </properties>
  </object>
  <object id="221" name="TileData" x="160" y="160" width="16" height="16">
   <properties>
    <property name="FloorID" value="Main"/>
   </properties>
  </object>
  <object id="222" name="TileData" x="176" y="160" width="16" height="16">
   <properties>
    <property name="FloorID" value="Main"/>
   </properties>
  </object>
  <object id="223" name="TileData" x="192" y="160" width="16" height="16">
   <properties>
    <property name="FloorID" value="Main"/>
   </properties>
  </object>
  <object id="224" name="TileData" x="208" y="160" width="16" height="16">
   <properties>
    <property name="FloorID" value="Main"/>
   </properties>
  </object>
  <object id="225" name="TileData" x="224" y="160" width="16" height="16">
   <properties>
    <property name="FloorID" value="Main"/>
   </properties>
  </object>
  <object id="226" name="TileData" x="240" y="192" width="16" height="16">
   <properties>
    <property name="FloorID" value="Main"/>
   </properties>
  </object>
  <object id="227" name="TileData" x="240" y="160" width="16" height="16">
   <properties>
    <property name="FloorID" value="Main"/>
   </properties>
  </object>
  <object id="228" name="TileData" x="256" y="160" width="16" height="16">
   <properties>
    <property name="FloorID" value="Main"/>
   </properties>
  </object>
  <object id="229" name="TileData" x="256" y="192" width="16" height="16">
   <properties>
    <property name="FloorID" value="Main"/>
   </properties>
  </object>
  <object id="230" name="TileData" x="272" y="160" width="16" height="16">
   <properties>
    <property name="FloorID" value="Main"/>
   </properties>
  </object>
  <object id="231" name="TileData" x="288" y="176" width="16" height="16">
   <properties>
    <property name="FloorID" value="Main"/>
   </properties>
  </object>
  <object id="232" name="TileData" x="304" y="192" width="16" height="16">
   <properties>
    <property name="FloorID" value="Main"/>
   </properties>
  </object>
  <object id="233" name="TileData" x="304" y="208" width="16" height="16">
   <properties>
    <property name="FloorID" value="Main"/>
   </properties>
  </object>
  <object id="234" name="TileData" x="304" y="224" width="16" height="16">
   <properties>
    <property name="FloorID" value="Main"/>
   </properties>
  </object>
  <object id="235" name="TileData" x="288" y="192" width="16" height="16">
   <properties>
    <property name="FloorID" value="Main"/>
   </properties>
  </object>
  <object id="236" name="TileData" x="272" y="192" width="16" height="16">
   <properties>
    <property name="FloorID" value="Main"/>
   </properties>
  </object>
  <object id="237" name="TileData" x="224" y="208" width="16" height="16">
   <properties>
    <property name="FloorID" value="Main"/>
   </properties>
  </object>
  <object id="238" name="TileData" x="208" y="208" width="16" height="16">
   <properties>
    <property name="FloorID" value="Main"/>
   </properties>
  </object>
  <object id="239" name="TileData" x="192" y="208" width="16" height="16">
   <properties>
    <property name="FloorID" value="Main"/>
   </properties>
  </object>
  <object id="240" name="TileData" x="160" y="208" width="16" height="16">
   <properties>
    <property name="FloorID" value="Main"/>
   </properties>
  </object>
  <object id="241" name="TileData" x="224" y="192" width="16" height="16">
   <properties>
    <property name="FloorID" value="Main"/>
   </properties>
  </object>
  <object id="242" name="TileData" x="144" y="208" width="16" height="16">
   <properties>
    <property name="FloorID" value="Main"/>
   </properties>
  </object>
  <object id="243" name="TileData" x="240" y="208" width="16" height="16">
   <properties>
    <property name="FloorID" value="Main"/>
   </properties>
  </object>
  <object id="244" name="TileData" x="128" y="208" width="16" height="16">
   <properties>
    <property name="FloorID" value="Main"/>
   </properties>
  </object>
  <object id="245" name="TileData" x="112" y="208" width="16" height="16">
   <properties>
    <property name="FloorID" value="Main"/>
   </properties>
  </object>
  <object id="246" name="TileData" x="96" y="208" width="16" height="16">
   <properties>
    <property name="FloorID" value="Main"/>
   </properties>
  </object>
  <object id="247" name="TileData" x="80" y="208" width="16" height="16">
   <properties>
    <property name="FloorID" value="Main"/>
   </properties>
  </object>
  <object id="248" name="TileData" x="64" y="208" width="16" height="16">
   <properties>
    <property name="FloorID" value="Main"/>
   </properties>
  </object>
  <object id="249" name="TileData" x="80" y="240" width="16" height="16">
   <properties>
    <property name="FloorID" value="Main"/>
   </properties>
  </object>
  <object id="250" name="TileData" x="64" y="240" width="16" height="16">
   <properties>
    <property name="FloorID" value="Main"/>
   </properties>
  </object>
  <object id="251" name="TileData" x="48" y="240" width="16" height="16">
   <properties>
    <property name="FloorID" value="Main"/>
   </properties>
  </object>
  <object id="252" name="TileData" x="80" y="224" width="16" height="16">
   <properties>
    <property name="FloorID" value="Main"/>
   </properties>
  </object>
  <object id="253" name="TileData" x="64" y="224" width="16" height="16">
   <properties>
    <property name="FloorID" value="Main"/>
   </properties>
  </object>
  <object id="254" name="TileData" x="48" y="224" width="16" height="16">
   <properties>
    <property name="FloorID" value="Main"/>
   </properties>
  </object>
  <object id="255" name="TileData" x="64" y="192" width="16" height="16">
   <properties>
    <property name="FloorID" value="Main"/>
   </properties>
  </object>
  <object id="256" name="TileData" x="112" y="192" width="16" height="16">
   <properties>
    <property name="FloorID" value="Main"/>
   </properties>
  </object>
  <object id="257" name="TileData" x="192" y="176" width="16" height="16">
   <properties>
    <property name="FloorID" value="Main"/>
   </properties>
  </object>
  <object id="258" name="TileData" x="224" y="176" width="16" height="16">
   <properties>
    <property name="FloorID" value="Main"/>
   </properties>
  </object>
  <object id="259" name="TileData" x="240" y="176" width="16" height="16">
   <properties>
    <property name="FloorID" value="Main"/>
   </properties>
  </object>
  <object id="260" name="TileData" x="256" y="176" width="16" height="16">
   <properties>
    <property name="FloorID" value="Main"/>
   </properties>
  </object>
  <object id="261" name="TileData" x="256" y="240" width="16" height="16">
   <properties>
    <property name="FloorID" value="Main"/>
   </properties>
  </object>
  <object id="262" name="TileData" x="240" y="240" width="16" height="16">
   <properties>
    <property name="FloorID" value="Main"/>
   </properties>
  </object>
  <object id="263" name="TileData" x="272" y="176" width="16" height="16">
   <properties>
    <property name="FloorID" value="Main"/>
   </properties>
  </object>
  <object id="264" name="TileData" x="288" y="240" width="16" height="16">
   <properties>
    <property name="FloorID" value="Main"/>
   </properties>
  </object>
  <object id="265" name="TileData" x="288" y="224" width="16" height="16">
   <properties>
    <property name="FloorID" value="Main"/>
   </properties>
  </object>
  <object id="266" name="TileData" x="288" y="208" width="16" height="16">
   <properties>
    <property name="FloorID" value="Main"/>
   </properties>
  </object>
  <object id="267" name="TileData" x="272" y="240" width="16" height="16">
   <properties>
    <property name="FloorID" value="Main"/>
   </properties>
  </object>
  <object id="268" name="TileData" x="272" y="224" width="16" height="16">
   <properties>
    <property name="FloorID" value="Main"/>
   </properties>
  </object>
  <object id="269" name="TileData" x="272" y="208" width="16" height="16">
   <properties>
    <property name="FloorID" value="Main"/>
   </properties>
  </object>
  <object id="270" name="TileData" x="256" y="208" width="16" height="16">
   <properties>
    <property name="FloorID" value="Main"/>
   </properties>
  </object>
  <object id="271" name="TileData" x="256" y="224" width="16" height="16">
   <properties>
    <property name="FloorID" value="Main"/>
   </properties>
  </object>
  <object id="272" name="TileData" x="240" y="224" width="16" height="16">
   <properties>
    <property name="FloorID" value="Main"/>
   </properties>
  </object>
  <object id="273" name="TileData" x="224" y="224" width="16" height="16">
   <properties>
    <property name="FloorID" value="Main"/>
   </properties>
  </object>
  <object id="274" name="TileData" x="208" y="224" width="16" height="16">
   <properties>
    <property name="FloorID" value="Main"/>
   </properties>
  </object>
  <object id="275" name="TileData" x="192" y="224" width="16" height="16">
   <properties>
    <property name="FloorID" value="Main"/>
   </properties>
  </object>
  <object id="276" name="TileData" x="224" y="240" width="16" height="16">
   <properties>
    <property name="FloorID" value="Main"/>
   </properties>
  </object>
  <object id="277" name="TileData" x="176" y="224" width="16" height="16">
   <properties>
    <property name="FloorID" value="Main"/>
   </properties>
  </object>
  <object id="278" name="TileData" x="160" y="224" width="16" height="16">
   <properties>
    <property name="FloorID" value="Main"/>
   </properties>
  </object>
  <object id="279" name="TileData" x="208" y="240" width="16" height="16">
   <properties>
    <property name="FloorID" value="Main"/>
   </properties>
  </object>
  <object id="280" name="TileData" x="144" y="224" width="16" height="16">
   <properties>
    <property name="FloorID" value="Main"/>
   </properties>
  </object>
  <object id="281" name="TileData" x="128" y="224" width="16" height="16">
   <properties>
    <property name="FloorID" value="Main"/>
   </properties>
  </object>
  <object id="282" name="TileData" x="192" y="240" width="16" height="16">
   <properties>
    <property name="FloorID" value="Main"/>
   </properties>
  </object>
  <object id="283" name="TileData" x="176" y="240" width="16" height="16">
   <properties>
    <property name="FloorID" value="Main"/>
   </properties>
  </object>
  <object id="284" name="TileData" x="160" y="240" width="16" height="16">
   <properties>
    <property name="FloorID" value="Main"/>
   </properties>
  </object>
  <object id="285" name="TileData" x="112" y="224" width="16" height="16">
   <properties>
    <property name="FloorID" value="Main"/>
   </properties>
  </object>
  <object id="286" name="TileData" x="144" y="240" width="16" height="16">
   <properties>
    <property name="FloorID" value="Main"/>
   </properties>
  </object>
  <object id="287" name="TileData" x="128" y="240" width="16" height="16">
   <properties>
    <property name="FloorID" value="Main"/>
   </properties>
  </object>
  <object id="288" name="TileData" x="112" y="240" width="16" height="16">
   <properties>
    <property name="FloorID" value="Main"/>
   </properties>
  </object>
  <object id="289" name="TileData" x="96" y="240" width="16" height="16">
   <properties>
    <property name="FloorID" value="Main"/>
   </properties>
  </object>
  <object id="290" name="TileData" x="160" y="32" width="16" height="16">
   <properties>
    <property name="WallID" value="Main"/>
   </properties>
  </object>
  <object id="291" name="TileData" x="176" y="32" width="16" height="16">
   <properties>
    <property name="WallID" value="Main"/>
   </properties>
  </object>
  <object id="292" name="TileData" x="192" y="32" width="16" height="16">
   <properties>
    <property name="WallID" value="Main"/>
   </properties>
  </object>
  <object id="293" name="TileData" x="208" y="32" width="16" height="16">
   <properties>
    <property name="WallID" value="Main"/>
   </properties>
  </object>
  <object id="294" name="TileData" x="224" y="32" width="16" height="16">
   <properties>
    <property name="WallID" value="Main"/>
   </properties>
  </object>
  <object id="295" name="TileData" x="144" y="32" width="16" height="16">
   <properties>
    <property name="WallID" value="Main"/>
   </properties>
  </object>
  <object id="296" name="TileData" x="240" y="32" width="16" height="16">
   <properties>
    <property name="WallID" value="Main"/>
   </properties>
  </object>
  <object id="297" name="TileData" x="160" y="64" width="16" height="16">
   <properties>
    <property name="FloorID" value="Main"/>
   </properties>
  </object>
  <object id="298" name="TileData" x="176" y="64" width="16" height="16">
   <properties>
    <property name="FloorID" value="Main"/>
   </properties>
  </object>
  <object id="299" name="TileData" x="192" y="64" width="16" height="16">
   <properties>
    <property name="FloorID" value="Main"/>
   </properties>
  </object>
  <object id="300" name="TileData" x="208" y="64" width="16" height="16">
   <properties>
    <property name="FloorID" value="Main"/>
   </properties>
  </object>
  <object id="301" name="TileData" x="224" y="64" width="16" height="16">
   <properties>
    <property name="FloorID" value="Main"/>
   </properties>
  </object>
  <object id="302" name="TileData" x="240" y="64" width="16" height="16">
   <properties>
    <property name="FloorID" value="Main"/>
   </properties>
  </object>
  <object id="303" name="TileData" x="144" y="64" width="16" height="16">
   <properties>
    <property name="FloorID" value="Main"/>
   </properties>
  </object>
  <object id="304" name="TileData" x="192" y="272" width="16" height="16">
   <properties>
    <property name="FloorID" value="Main"/>
   </properties>
  </object>
 </objectgroup>
 <objectgroup id="7" name="Buildings"/>
 <objectgroup id="8" name="Front"/>
 <objectgroup id="9" name="Paths"/>
 <objectgroup id="10" name="AlwaysFront"/>
</map>
